public/images/gatsby.svg

<svg fill="none" height="90" viewBox="0 0 90 90" width="90" xmlns="http://www.w3.org/2000/svg"><path d="m44.0667 82.4888c-19.5787-.48-35.43748-15.9638-36.50998-35.3925l-.045-1.1738zm.9338-74.98879c6.0304-.00434 11.9727 1.44746 17.3217 4.23199 5.3491 2.7845 9.9467 6.8194 13.402 11.7618l-6.1425 4.305c-3.1206-4.4565-7.394-7.9808-12.363-10.1961-4.9689-2.2153-10.4466-3.0382-15.8472-2.3807-5.4005.6575-10.5208 2.7707-14.8131 6.1135s-7.5952 7.7895-9.5554 12.8645l38.7975 38.7975c4.4512-1.7224 8.4285-4.4798 11.6029-8.0441 3.1743-3.5643 5.4546-7.8331 6.6521-12.4534h-15.93v-7.5h24.375c0 17.7225-12.2963 32.5725-28.8188 36.4875l-45.17248-45.165c3.91878-16.5225 18.76878-28.82249 36.49128-28.82249z" fill="#000"/></svg>

<svg width="90" height="90" viewBox="0 0 90 90" fill="none" xmlns="http://www.w3.org/2000/svg">
<path d="M44.0667 82.4888C24.488 82.0088 8.62922 66.525 7.55672 47.0963L7.51172 45.9225L44.0667 82.4888V82.4888ZM45.0005 7.50001C51.0309 7.49567 56.9732 8.94747 62.3222 11.732C67.6713 14.5165 72.2689 18.5514 75.7242 23.4938L69.5817 27.7988C66.4611 23.3423 62.1877 19.818 57.2187 17.6027C52.2498 15.3874 46.7721 14.5645 41.3715 15.222C35.971 15.8795 30.8507 17.9927 26.5584 21.3355C22.2661 24.6783 18.9632 29.125 17.003 34.2L55.8005 72.9975C60.2517 71.2751 64.229 68.5177 67.4034 64.9534C70.5777 61.3891 72.858 57.1203 74.0555 52.5H58.1255V45H82.5005C82.5005 62.7225 70.2042 77.5725 53.6817 81.4875L8.50922 36.3225C12.428 19.8 27.278 7.50001 45.0005 7.50001Z" fill="black"/>
</svg>
